public/images/icon_id_sector_empresa_31.svg

<svg width="42" height="42" viewBox="0 0 42 42" fill="none" xmlns="http://www.w3.org/2000/svg">
<path d="M31.815 26.1319H23.9138V24.5307C24.3075 24.2551 24.5438 23.8482 24.5569 23.4019C26.4731 22.9951 28.2582 22.0894 29.6888 20.7507C29.9382 20.5144 30.0957 20.1863 30.0957 19.8319C30.0957 19.6744 30.0563 19.5038 29.9775 19.3332C31.5263 17.5219 32.4582 15.2513 32.5894 12.9282C32.5894 12.7707 32.55 12.6132 32.4319 12.4819C32.3269 12.3638 32.1694 12.2851 32.025 12.2851C31.8806 12.2588 31.7363 12.2851 31.605 12.3901C31.4606 12.5082 31.3688 12.6788 31.3688 12.8494C31.2507 14.8182 30.4632 16.7869 29.1507 18.3882L28.6519 17.9026C29.9513 16.3013 30.6732 14.3063 30.6732 12.3113V8.84631C30.6732 8.05881 30.03 7.41568 29.2425 7.41568H28.56V6.69381H29.2425C30.4238 6.69381 31.395 7.65193 31.395 8.84631V10.6313C31.395 10.9726 31.6706 11.2482 32.0119 11.2482C32.3531 11.2482 32.6288 10.9726 32.6288 10.6313V8.84631C32.6288 6.98256 31.1194 5.47318 29.2557 5.47318H28.4025C28.2057 5.13193 27.8513 4.93506 27.4707 4.93506H26.46C25.2919 4.93506 24.3469 5.88006 24.3469 7.04818C24.3469 8.21631 25.2919 9.16131 26.46 9.16131H27.4707C27.8382 9.16131 28.1794 8.96443 28.3894 8.63631H29.2557C29.3738 8.63631 29.4657 8.72818 29.4657 8.84631V12.3113C29.4657 14.0569 28.7832 15.8551 27.5888 17.2594C27.2213 17.2069 26.8538 17.3119 26.6044 17.5482C25.4232 18.6113 23.9532 19.1626 22.365 19.1757C20.7769 19.1757 19.2675 18.5982 18.0863 17.5482C17.8238 17.3119 17.4694 17.2069 17.1019 17.2594C15.9075 15.8551 15.225 14.0569 15.225 12.3113V8.84631C15.225 8.72818 15.3169 8.63631 15.435 8.63631H16.3013C16.5113 8.96443 16.8525 9.16131 17.22 9.16131H18.2307C19.3988 9.16131 20.3438 8.21631 20.3438 7.04818C20.3438 5.88006 19.3988 4.93506 18.2307 4.93506H17.22C16.8394 4.93506 16.485 5.14506 16.2881 5.47318H15.435C13.5713 5.47318 12.0619 6.98256 12.0619 8.84631V12.3113C12.0619 14.8182 13.02 17.3644 14.6869 19.3201C14.6081 19.4907 14.5688 19.6613 14.5688 19.8319C14.5688 20.1732 14.7263 20.5144 14.9756 20.7507C16.4194 22.0763 18.1913 22.9819 20.1075 23.3888C20.1206 23.8482 20.3569 24.2551 20.7507 24.5307V26.1319H11.9044C11.3532 26.1319 10.8938 25.6857 10.8938 25.1213V24.3601C12.6657 23.6907 13.8469 22.0107 13.8469 20.1338C13.8469 17.6401 11.8125 15.6057 9.31878 15.6057C8.92503 15.6057 8.53128 15.6582 8.16378 15.7501C8.00628 15.7894 7.87503 15.8944 7.79628 16.0388C7.71753 16.1832 7.69128 16.3407 7.73065 16.4982C7.77003 16.6557 7.87503 16.7869 8.0194 16.8657C8.16378 16.9444 8.32128 16.9707 8.47878 16.9313C8.74128 16.8657 9.03003 16.8263 9.31878 16.8263C11.1432 16.8263 12.6263 18.3094 12.6263 20.1338C12.6263 21.9582 11.1432 23.4413 9.31878 23.4413C7.4944 23.4413 6.01128 21.9582 6.01128 20.1338C6.01128 19.3201 6.30003 18.5457 6.83815 17.9419C7.06128 17.6926 7.03503 17.2988 6.78565 17.0757C6.66753 16.9707 6.51003 16.9051 6.3394 16.9313C6.1819 16.9313 6.0244 17.0101 5.9194 17.1413C5.1844 17.9682 4.77753 19.0313 4.77753 20.1469C4.77753 22.0238 5.95878 23.7169 7.73065 24.3732V25.1344C7.73065 27.4313 9.60753 29.3082 11.9044 29.3082H20.7507V32.7732C20.7507 35.0701 22.6275 36.9469 24.9244 36.9469H31.8281C33.2719 36.9469 34.6238 36.3826 35.6475 35.3719C36.6713 34.3482 37.2225 32.9963 37.2225 31.5526C37.2225 28.5732 34.8075 26.1582 31.8281 26.1582L31.815 26.1319ZM11.9044 27.3526H20.7507V28.0744H11.9044C10.2769 28.0744 8.9644 26.7488 8.9644 25.1344V24.6488H8.99065C9.20065 24.6751 9.4369 24.6751 9.6469 24.6488H9.67315V25.1344C9.67315 26.3682 10.6707 27.3657 11.9044 27.3657V27.3526ZM31.815 33.7576H24.9113C24.36 33.7576 23.9006 33.3113 23.9006 32.7469V29.2951H31.8019C33.0357 29.2951 34.0331 30.2926 34.0331 31.5263C34.0331 32.7601 33.0357 33.7576 31.8019 33.7576H31.815ZM21.9713 24.8194H22.6932V32.7601C22.6932 33.9938 23.6906 34.9913 24.9244 34.9913H31.8281C33.7313 34.9913 35.28 33.4426 35.28 31.5394C35.28 29.6363 33.7313 28.0876 31.8281 28.0876H23.9269V27.3657H31.8281C34.125 27.3657 36.0019 29.2426 36.0019 31.5394C36.0019 32.6551 35.5688 33.7051 34.7813 34.4926C33.9938 35.2801 32.9438 35.7132 31.8281 35.7132H24.9244C23.2969 35.7132 21.9713 34.3876 21.9713 32.7732V24.8326V24.8194ZM17.2594 18.4538C18.6507 19.7007 20.475 20.3963 22.3781 20.3963C24.2419 20.3963 26.0269 19.7007 27.4181 18.4538C27.4181 18.4538 27.4444 18.4538 27.4575 18.4538L28.77 19.7007V19.7532H28.8225L28.875 19.8057L28.8488 19.8451C27.0769 21.4857 24.78 22.3913 22.3781 22.3913H22.3388C19.9238 22.3913 17.6138 21.4988 15.8157 19.8582V19.7401L17.1938 18.4276C17.1938 18.4276 17.2069 18.4276 17.2332 18.4276L17.2594 18.4538ZM15.4219 6.69381H16.1044V7.41568H15.4219C14.6344 7.41568 13.9913 8.05881 13.9913 8.84631V12.3113C13.9913 14.3063 14.7132 16.3013 16.0125 17.9026L15.4875 18.4013C14.07 16.6819 13.2694 14.4638 13.2694 12.3113V8.84631C13.2694 7.66506 14.2407 6.69381 15.4219 6.69381ZM27.3657 7.88818V7.91443H26.46C25.9744 7.91443 25.5675 7.50756 25.5675 7.02193C25.5675 6.53631 25.9744 6.12943 26.46 6.12943L27.3525 6.10318L27.3788 7.87506L27.3657 7.88818ZM17.2988 6.20818V6.18193C17.2988 6.18193 17.2988 6.15568 17.3119 6.15568H18.2175C18.7032 6.15568 19.11 6.54943 19.11 7.04818C19.11 7.54693 18.7032 7.94068 18.2175 7.94068L17.325 7.96693L17.2988 6.22131V6.20818Z" fill="url(#paint0_linear_133_1161)"/>
<path d="M10.8938 20.134C10.8938 19.2678 10.185 18.5459 9.31878 18.5459C8.45253 18.5459 7.73065 19.2546 7.73065 20.134C7.73065 21.0134 8.4394 21.7221 9.31878 21.7221C10.1982 21.7221 10.8938 21.0134 10.8938 20.134ZM9.67315 20.134C9.67315 20.3309 9.51565 20.4884 9.31878 20.4884C9.1219 20.4884 8.9644 20.3309 8.9644 20.134C8.9644 19.9371 9.1219 19.7796 9.31878 19.7796C9.51565 19.7796 9.67315 19.9371 9.67315 20.134Z" fill="url(#paint1_linear_133_1161)"/>
<defs>
<linearGradient id="paint0_linear_133_1161" x1="20.6793" y1="4.93506" x2="35.5207" y2="14.1999" gradientUnits="userSpaceOnUse">
<stop stop-color="#192644"/>
<stop offset="1" stop-color="#1A4081"/>
</linearGradient>
<linearGradient id="paint1_linear_133_1161" x1="9.28095" y1="18.5459" x2="10.742" y2="19.4421" gradientUnits="userSpaceOnUse">
<stop stop-color="#192644"/>
<stop offset="1" stop-color="#1A4081"/>
</linearGradient>
</defs>
</svg>

<svg xmlns="http://www.w3.org/2000/svg" fill="none" viewBox="0 0 42 42"><path fill="url(#a)" d="M31.82 26.13h-7.9v-1.6c.39-.27.62-.68.64-1.13 1.91-.4 3.7-1.31 5.13-2.65a1.2 1.2 0 0 0 .29-1.42 10.87 10.87 0 0 0 2.6-6.4.64.64 0 0 0-.15-.45.57.57 0 0 0-.4-.2.5.5 0 0 0-.43.11.61.61 0 0 0-.23.46 9.76 9.76 0 0 1-2.22 5.54l-.5-.49a8.94 8.94 0 0 0 2.02-5.59V8.85c0-.8-.64-1.43-1.43-1.43h-.68v-.73h.68c1.18 0 2.16.96 2.16 2.16v1.78a.62.62 0 1 0 1.23 0V8.85c0-1.87-1.51-3.38-3.37-3.38h-.86c-.2-.34-.55-.53-.93-.53h-1.01a2.11 2.11 0 1 0 0 4.22h1.01c.37 0 .7-.2.92-.52h.87c.11 0 .2.09.2.2v3.47c0 1.75-.68 3.55-1.87 4.95-.37-.05-.74.05-.99.29a6.41 6.41 0 0 1-8.52 0 1.2 1.2 0 0 0-.98-.3 7.77 7.77 0 0 1-1.88-4.94V8.85c0-.12.1-.21.21-.21h.87c.21.32.55.52.92.52h1.01a2.11 2.11 0 1 0 0-4.22h-1.01c-.38 0-.73.2-.93.53h-.85a3.37 3.37 0 0 0-3.38 3.38v3.46c0 2.5.96 5.05 2.63 7.01-.08.17-.12.34-.12.51 0 .34.16.68.4.92a10.94 10.94 0 0 0 5.14 2.64c.01.46.25.87.64 1.14v1.6H11.9c-.55 0-1-.44-1-1v-.77a4.53 4.53 0 0 0 2.95-4.23 4.54 4.54 0 0 0-5.69-4.38.58.58 0 0 0-.36.29c-.08.14-.1.3-.07.46a.63.63 0 0 0 .75.43 3.31 3.31 0 1 1-1.64 1.01.62.62 0 0 0-.05-.86.55.55 0 0 0-.45-.15.55.55 0 0 0-.42.21 4.51 4.51 0 0 0 1.81 7.23v.76c0 2.3 1.88 4.18 4.17 4.18h8.85v3.46c0 2.3 1.88 4.18 4.17 4.18h6.9a5.4 5.4 0 1 0 0-10.8v-.02ZM11.9 27.35h8.85v.72H11.9a2.94 2.94 0 0 1-2.94-2.94v-.48H9c.21.03.45.03.66 0h.02v.48c0 1.24 1 2.24 2.23 2.24v-.02Zm19.91 6.4h-6.9c-.55 0-1-.44-1-1V29.3h7.9a2.23 2.23 0 1 1 0 4.46Zm-9.84-8.93h.72v7.94c0 1.23 1 2.23 2.23 2.23h6.9a3.46 3.46 0 0 0 0-6.9h-7.9v-.72h7.9a4.18 4.18 0 0 1 2.96 7.12 4.15 4.15 0 0 1-2.95 1.22h-6.9a2.95 2.95 0 0 1-2.96-2.94v-7.95Zm-4.71-6.37a7.67 7.67 0 0 0 5.12 1.95c1.86 0 3.65-.7 5.04-1.95h.04l1.31 1.25v.05h.05l.05.06-.02.04a9.5 9.5 0 0 1-6.47 2.54h-.04c-2.42 0-4.73-.9-6.52-2.53v-.12l1.37-1.31h.04l.03.02ZM15.42 6.7h.68v.73h-.68c-.79 0-1.43.64-1.43 1.43v3.46c0 2 .72 4 2.02 5.6l-.52.5a9.74 9.74 0 0 1-2.22-6.1V8.85c0-1.18.97-2.16 2.15-2.16Zm11.95 1.2v.02h-.91a.9.9 0 0 1-.9-.89c0-.48.41-.9.9-.9l.9-.02.02 1.78h-.01ZM17.3 6.2v-.03l.01-.02h.9a.9.9 0 0 1 0 1.78l-.89.03-.02-1.75v-.01Z"/><path fill="url(#b)" d="M10.9 20.13c0-.86-.71-1.58-1.58-1.58a1.59 1.59 0 1 0 1.58 1.59Zm-1.23 0a.35.35 0 1 1-.7 0c0-.2.15-.35.35-.35.2 0 .35.16.35.35Z"/><defs><linearGradient id="a" x1="20.68" x2="35.52" y1="4.94" y2="14.2" gradientUnits="userSpaceOnUse"><stop stop-color="#192644"/><stop offset="1" stop-color="#1A4081"/></linearGradient><linearGradient id="b" x1="9.28" x2="10.74" y1="18.55" y2="19.44" gradientUnits="userSpaceOnUse"><stop stop-color="#192644"/><stop offset="1" stop-color="#1A4081"/></linearGradient></defs></svg>
